svgs/sharp-light/toilets-portable.svg

<svg xmlns="http://www.w3.org/2000/svg" viewBox="0 0 576 512"><!--! Font Awesome Pro 6.6.0 by @fontawesome - https://fontawesome.com License - https://fontawesome.com/license (Commercial License) Copyright 2024 Fonticons, Inc. --><path d="M0 0L16 0 240 0l16 0 0 16 0 192 0 32 0 64 0 32 0 160 0 16-32 0 0-16 0-16L32 480l0 16 0 16L0 512l0-16L0 16 0 0zM224 304l0-64-32 0 0 64 32 0zm0-96l0-80L32 128l0 320 192 0 0-112-32 0-32 0 0-32 0-64 0-32 32 0 32 0zm0-176L32 32l0 64 192 0 0-64zM320 0l16 0L560 0l16 0 0 16 0 192 0 32 0 64 0 32 0 160 0 16-32 0 0-16 0-16-192 0 0 16 0 16-32 0 0-16 0-480 0-16zM544 304l0-64-32 0 0 64 32 0zm0-96l0-80-192 0 0 320 192 0 0-112-32 0-32 0 0-32 0-64 0-32 32 0 32 0zm0-176L352 32l0 64 192 0 0-64z"/></svg>

<svg xmlns="http://www.w3.org/2000/svg" viewBox="0 0 576 512"><!--! Font Awesome Pro 6.4.2 by @fontawesome - https://fontawesome.com License - https://fontawesome.com/license (Commercial License) Copyright 2023 Fonticons, Inc. --><path d="M0 0H16 240h16V16 208v32 64 32V496v16H224V496 480H32v16 16H0V496 16 0zM224 304V240H192v64h32zm0-96V128H32V448H224V336H192 160V304 240 208h32 32zm0-176H32V96H224V32zM320 0h16H560h16V16 208v32 64 32V496v16H544V496 480H352v16 16H320V496 16 0zM544 304V240H512v64h32zm0-96V128H352V448H544V336H512 480V304 240 208h32 32zm0-176H352V96H544V32z"/></svg>
